X: 167
T:Lannigan's Ball
% Nottingham Music Database
S:1000ECDT, via EF
Y:AB
M:6/8
K:Em
P:A
D|"Em"EFE G2A|"Em"B2A B^cd|"D"DED F2G|"D"ABA AFD|
"Em"EFE G2A|"Em"B2A B^cd|"G"edB "Am"cBA|"Em"BGE E2:|
P:B
d|"Em"e2f gfe|"D"fag fed|"Em"e2f gfe|"Bm"fdB B2d|
"Em"e2f gfe|"D"fag fed|"G"edB "Am"cBA|"Em"BGE E2:|


